X:48
T:Dillon's Reel  
B:CRE1.085 (Ril Ui Dhioluin)
F:file ID: cre.1/048dill_R
S:Willie Clancy
M:C
L:1/8
Q:180
R:reel
K:G
DGG2 dGBG|(3B^cd gd (3efg d=c|(3B^cd GA BGdG|A2AG AGEA|
DGBG dGBG|(3B^cd gd (3efg d=c|(3B^cd ef gf (3gfe|dBGd BGG2:|
gdBd gdBd|g2af gdBd|gd (3B^cd gdBG|(3EFG AB cdef|
g2Bd gdBd|g2af gdBG|(3B^cd ef g2 (3gfe|dBgd BGG2:|

%%%

